Numix-Light-GalliumOS/scalable/devices/camera-photo-symbolic.svg

<?xml version="1.0" encoding="UTF-8" standalone="no"?>
<svg
   xmlns:dc="http://purl.org/dc/elements/1.1/"
   xmlns:cc="http://creativecommons.org/ns#"
   xmlns:rdf="http://www.w3.org/1999/02/22-rdf-syntax-ns#"
   xmlns:svg="http://www.w3.org/2000/svg"
   xmlns="http://www.w3.org/2000/svg"
   xmlns:sodipodi="http://sodipodi.sourceforge.net/DTD/sodipodi-0.dtd"
   xmlns:inkscape="http://www.inkscape.org/namespaces/inkscape"
   width="16"
   viewBox="0 0 16 16"
   height="16"
   id="svg2"
   version="1.1"
   inkscape:version="0.48.4 r9939"
   sodipodi:docname="camera-photo-symbolic.svg">
  <metadata
     id="metadata12">
    <rdf:RDF>
      <cc:Work
         rdf:about="">
        <dc:format>image/svg+xml</dc:format>
        <dc:type
           rdf:resource="http://purl.org/dc/dcmitype/StillImage" />
      </cc:Work>
    </rdf:RDF>
  </metadata>
  <defs
     id="defs10" />
  <sodipodi:namedview
     pagecolor="#ffffff"
     bordercolor="#666666"
     borderopacity="1"
     objecttolerance="10"
     gridtolerance="10"
     guidetolerance="10"
     inkscape:pageopacity="0"
     inkscape:pageshadow="2"
     inkscape:window-width="1301"
     inkscape:window-height="744"
     id="namedview8"
     showgrid="true"
     inkscape:zoom="40.505078"
     inkscape:cx="17.728984"
     inkscape:cy="12.367844"
     inkscape:window-x="65"
     inkscape:window-y="24"
     inkscape:window-maximized="1"
     inkscape:current-layer="svg2">
    <inkscape:grid
       type="xygrid"
       id="grid2989" />
  </sodipodi:namedview>
  <path
     style="line-height:normal;color:#000000;fill:#353535"
     d="M 2 1 L 2 2 L 1 2 C 0.325382 2 0 2.398647 0 3 L 0 13 C 0 13.609498 0.414967 14 1 14 L 15 14 C 15.609465 14 16 13.593209 16 13 L 16 3 C 16 2.423079 15.609465 2 15 2 L 6 2 L 6 1 L 2 1 z M 14 3 C 14.552285 3 15 3.4477153 15 4 C 15 4.5522847 14.552285 5 14 5 C 13.447715 5 13 4.5522847 13 4 C 13 3.4477153 13.447715 3 14 3 z M 8 4 C 10.209139 4 12 5.7908611 12 8 C 12 10.209139 10.209139 12 8 12 C 5.7908609 12 4 10.209139 4 8 C 4 5.7908611 5.7908609 4 8 4 z "
     id="path6" />
</svg>

<svg xmlns="http://www.w3.org/2000/svg" viewBox="0 0 16 16">
 <path d="m 2 1 l 0 1 l -1 0 c -0.675 0 -1 0.399 -1 1 l 0 10 c 0 0.609 0.415 1 1 1 l 14 0 c 0.609 0 1 -0.407 1 -1 l 0 -10 c 0 -0.577 -0.391 -1 -1 -1 l -9 0 l 0 -1 l -4 0 z m 12 2 c 0.552 0 1 0.448 1 1 c 0 0.552 -0.448 1 -1 1 c -0.552 0 -1 -0.448 -1 -1 c 0 -0.552 0.448 -1 1 -1 z m -6 1 c 2.209 0 4 1.791 4 4 c 0 2.209 -1.791 4 -4 4 c -2.209 0 -4 -1.791 -4 -4 c 0 -2.209 1.791 -4 4 -4 z" style="fill:#353535;color:#000"/>
</svg>
